X:1
T:Title
%%score { ( 1 3 ) | ( 2 4 ) }
L:1/8
M:3/4
K:Eb
V:1 treble nm="Grand Piano"
V:3 treble 
V:2 bass 
V:4 bass 
V:1
 z2 z2[Q:1/4=100] [EG]>[FA] | [GB]3 E D>E | G4 c>B | [DA]3 B, E>[DF] |[M:2/4] [EG]4 | %5
[M:1/4] [GB]>[EG] |[M:3/4] [Ge]3 [Ac] [GB]>[C_G=A] | [B,GB]4 [_DEB]>[CEA] | %8
 [B,EG]3 [G,B,] [A,DG]>[A,DF] |[M:2/4] [G,E]4 |[M:1/4] [B,EG]>[EGB] | %11
[M:3/4] [Ge]3 [G,E] [A,EF]>[B,EG] | E2- [Ec]2 B>B | B3 B/-(3:2:2B/=A/4 c>B |[M:2/4] [DB]4 | %15
[M:1/4] [DG]>[DF] |[M:3/4] [CE]3 [CE] [DF]>[DF] | G4 (3ed[Ec] | [EB]3 [G,B,] [A,DG]>[A,DF] | %19
[M:2/4] [G,E]4 |] %20
V:2
 z2 z2 [E,B,]>[E,B,] | [E,E]3 [E,G,B,] [E,F,B,]>[D,G,B,] | [E,B,E]4 [E,A,E]>[E,G,E] | %3
 [B,,F,]3 [B,,A,] [B,,G,B,]>[B,,B,] |[M:2/4] [E,B,]4 |[M:1/4] [E,E]>[E,B,] | %6
[M:3/4] [E,B,]3 [E,E] [E,E]>E, | E,4 G,,>A,, | B,,3 B,, B,,>B,, |[M:2/4] E,4 |[M:1/4] E,>E, | %11
[M:3/4] [E,B,]3 E, E,>E, | z2 A,2 [E,G,E]>[E,G,E] | [F,D]3 [F,D] [F,D]>[F,D] |[M:2/4] [B,,F,]4 | %15
[M:1/4] [B,,B,]>[B,,A,] |[M:3/4] [C,G,]3 [C,G,] [B,,B,]>[B,,B,] | %17
 [E,B,E]4 (3[A,,-CE-][A,,B,E][A,,A,] | [B,,G,]3 B,, B,,>B,, |[M:2/4] E,4 |] %20
V:3
 x6 | x6 | x6 | x6 |[M:2/4] x4 |[M:1/4] x2 |[M:3/4] x6 | x6 | x6 |[M:2/4] x4 |[M:1/4] x2 | %11
[M:3/4] x6 | [CA]2 z2 z2 | x6 |[M:2/4] x4 |[M:1/4] x2 |[M:3/4] x6 | x6 | x6 |[M:2/4] x4 |] %20
V:4
 x6 | x6 | x6 | x6 |[M:2/4] x4 |[M:1/4] x2 |[M:3/4] x6 | x6 | x6 |[M:2/4] x4 |[M:1/4] x2 | %11
[M:3/4] x6 | A,,4 z2 | x6 |[M:2/4] x4 |[M:1/4] x2 |[M:3/4] x6 | x6 | x6 |[M:2/4] x4 |] %20

